src/assets/flags/mn.svg

<?xml version="1.0" encoding="UTF-8"?>
<svg xmlns="http://www.w3.org/2000/svg" xmlns:xlink="http://www.w3.org/1999/xlink" width="25px" height="px" viewBox="0 0 25 19" version="1.1">
<g id="surface1">
<rect x="0" y="0" width="25" height="19" style="fill:rgb(85.490197%,12.54902%,19.607843%);fill-opacity:1;stroke:none;"/>
<path style=" stroke:none;fill-rule:nonzero;fill:rgb(0%,40.000001%,70.19608%);fill-opacity:1;" d="M 8.332031 0 L 16.667969 0 L 16.667969 19 L 8.332031 19 Z M 8.332031 0 "/>
<path style=" stroke:none;fill-rule:nonzero;fill:rgb(100%,85.09804%,0%);fill-opacity:1;" d="M 5.730469 7.195312 C 5.730469 6.320312 5.03125 5.613281 4.167969 5.613281 C 3.304688 5.613281 2.605469 6.320312 2.605469 7.195312 C 2.605469 8.070312 3.304688 8.78125 4.167969 8.78125 C 5.03125 8.78125 5.730469 8.070312 5.730469 7.195312 Z M 5.730469 7.195312 "/>
<path style=" stroke:none;fill-rule:nonzero;fill:rgb(85.490197%,12.54902%,19.607843%);fill-opacity:1;" d="M 5.871094 6.476562 C 5.871094 5.523438 5.109375 4.75 4.167969 4.75 C 3.226562 4.75 2.464844 5.523438 2.464844 6.476562 C 2.464844 7.429688 3.226562 8.203125 4.167969 8.203125 C 5.109375 8.203125 5.871094 7.429688 5.871094 6.476562 Z M 5.871094 6.476562 "/>
<path style=" stroke:none;fill-rule:nonzero;fill:rgb(100%,85.09804%,0%);fill-opacity:1;" d="M 5.304688 6.765625 C 5.304688 6.128906 4.796875 5.613281 4.167969 5.613281 C 3.539062 5.613281 3.03125 6.128906 3.03125 6.765625 C 3.03125 7.402344 3.539062 7.917969 4.167969 7.917969 C 4.796875 7.917969 5.304688 7.402344 5.304688 6.765625 Z M 5.304688 6.765625 "/>
<path style=" stroke:none;fill-rule:nonzero;fill:rgb(100%,85.09804%,0%);fill-opacity:1;" d="M 4.285156 3.023438 C 4.167969 3.078125 4.089844 3.191406 4.082031 3.320312 C 4.074219 3.421875 4.117188 3.53125 4.121094 3.625 C 4.121094 3.792969 3.953125 3.847656 3.953125 4.082031 C 3.953125 4.160156 4.027344 4.25 4.027344 4.460938 C 4.011719 4.570312 3.949219 4.597656 3.882812 4.609375 C 3.84375 4.609375 3.808594 4.59375 3.78125 4.5625 C 3.753906 4.535156 3.742188 4.5 3.742188 4.460938 C 3.742188 4.425781 3.757812 4.390625 3.78125 4.363281 L 3.796875 4.351562 C 3.828125 4.316406 3.875 4.300781 3.875 4.214844 C 3.875 4.171875 3.84375 4.128906 3.816406 4.050781 C 3.789062 3.96875 3.808594 3.84375 3.871094 3.769531 C 3.769531 3.808594 3.710938 3.902344 3.675781 3.988281 C 3.644531 4.097656 3.675781 4.15625 3.628906 4.246094 C 3.601562 4.300781 3.570312 4.328125 3.539062 4.375 C 3.5 4.429688 3.460938 4.546875 3.460938 4.609375 C 3.488281 4.984375 3.796875 5.273438 4.171875 5.273438 C 4.542969 5.273438 4.851562 4.984375 4.878906 4.609375 C 4.878906 4.546875 4.835938 4.429688 4.800781 4.375 C 4.765625 4.328125 4.734375 4.300781 4.707031 4.246094 C 4.660156 4.15625 4.691406 4.097656 4.65625 3.988281 C 4.625 3.902344 4.566406 3.808594 4.464844 3.769531 C 4.527344 3.847656 4.542969 3.972656 4.519531 4.050781 C 4.492188 4.128906 4.464844 4.167969 4.464844 4.214844 C 4.464844 4.300781 4.507812 4.316406 4.542969 4.351562 L 4.554688 4.363281 C 4.578125 4.390625 4.59375 4.425781 4.59375 4.460938 C 4.59375 4.5 4.582031 4.535156 4.554688 4.5625 C 4.527344 4.59375 4.492188 4.609375 4.453125 4.609375 C 4.375 4.59375 4.316406 4.558594 4.308594 4.460938 C 4.308594 4.183594 4.425781 4.167969 4.425781 3.960938 C 4.425781 3.667969 4.167969 3.53125 4.167969 3.316406 C 4.167969 3.246094 4.183594 3.121094 4.285156 3.023438 M 1.042969 9.066406 L 2.460938 9.066406 L 2.460938 15.972656 L 1.042969 15.972656 Z M 5.871094 9.066406 L 7.292969 9.066406 L 7.292969 15.972656 L 5.871094 15.972656 Z M 2.746094 9.066406 L 5.585938 9.066406 L 4.167969 9.925781 Z M 2.746094 10.210938 L 5.585938 10.210938 L 5.585938 10.789062 L 2.746094 10.789062 Z M 2.746094 14.246094 L 5.585938 14.246094 L 5.585938 14.824219 L 2.746094 14.824219 Z M 2.746094 15.109375 L 5.585938 15.109375 L 4.167969 15.972656 Z M 2.746094 15.109375 "/>
<path style=" stroke:none;fill-rule:nonzero;fill:rgb(100%,85.09804%,0%);fill-opacity:1;" d="M 5.589844 12.523438 C 5.589844 11.726562 4.953125 11.082031 4.167969 11.082031 C 3.382812 11.082031 2.746094 11.726562 2.746094 12.523438 C 2.746094 13.320312 3.382812 13.964844 4.167969 13.964844 C 4.953125 13.964844 5.589844 13.320312 5.589844 12.523438 Z M 5.589844 12.523438 "/>
<path style=" stroke:none;fill-rule:nonzero;fill:rgb(85.490197%,12.54902%,19.607843%);fill-opacity:1;" d="M 4.449219 11.757812 C 4.449219 11.601562 4.324219 11.472656 4.167969 11.472656 C 4.007812 11.472656 3.882812 11.601562 3.882812 11.757812 C 3.882812 11.917969 4.007812 12.046875 4.167969 12.046875 C 4.324219 12.046875 4.449219 11.917969 4.449219 11.757812 Z M 4.449219 11.757812 "/>
<path style=" stroke:none;fill-rule:nonzero;fill:rgb(85.490197%,12.54902%,19.607843%);fill-opacity:1;" d="M 4.449219 13.285156 C 4.449219 13.125 4.324219 12.996094 4.167969 12.996094 C 4.007812 12.996094 3.882812 13.125 3.882812 13.285156 C 3.882812 13.445312 4.007812 13.574219 4.167969 13.574219 C 4.324219 13.574219 4.449219 13.445312 4.449219 13.285156 Z M 4.449219 13.285156 "/>
<path style=" stroke:none;fill-rule:nonzero;fill:rgb(85.490197%,12.54902%,19.607843%);fill-opacity:1;" d="M 4.167969 10.910156 C 4.628906 10.910156 5.003906 11.289062 5.003906 11.757812 C 5.003906 12.226562 4.628906 12.609375 4.167969 12.609375 C 3.796875 12.609375 3.5 12.910156 3.5 13.285156 C 3.5 13.65625 3.796875 13.960938 4.167969 13.960938 L 4.167969 14.132812 C 3.703125 14.132812 3.328125 13.753906 3.328125 13.285156 C 3.328125 12.816406 3.703125 12.433594 4.167969 12.433594 C 4.535156 12.433594 4.832031 12.132812 4.832031 11.757812 C 4.832031 11.386719 4.535156 11.082031 4.167969 11.082031 Z M 4.167969 10.910156 "/>
</g>
</svg>

<svg xmlns="http://www.w3.org/2000/svg" width="25" height="px" viewBox="0 0 25 19"><path d="M0 0h25v19H0z" style="fill:#da2032;fill-opacity:1;stroke:none"/><path d="M8.332 0h8.336v19H8.332Zm0 0" style="stroke:none;fill-rule:nonzero;fill:#0066b3;fill-opacity:1"/><path d="M5.73 7.195c0-.875-.699-1.582-1.562-1.582s-1.563.707-1.563 1.582.7 1.586 1.563 1.586 1.562-.71 1.562-1.586m0 0" style="stroke:none;fill-rule:nonzero;fill:#ffd900;fill-opacity:1"/><path d="M5.871 6.477c0-.954-.762-1.727-1.703-1.727s-1.703.773-1.703 1.727c0 .953.762 1.726 1.703 1.726s1.703-.773 1.703-1.726m0 0" style="stroke:none;fill-rule:nonzero;fill:#da2032;fill-opacity:1"/><path d="M5.305 6.766c0-.637-.508-1.153-1.137-1.153s-1.137.516-1.137 1.153c0 .636.508 1.152 1.137 1.152s1.137-.516 1.137-1.152M4.285 3.023a.35.35 0 0 0-.203.297c-.008.102.035.211.04.305 0 .168-.169.223-.169.457 0 .078.074.168.074.379-.015.11-.078.137-.144.148a.13.13 0 0 1-.102-.046.14.14 0 0 1-.039-.102c0-.035.016-.07.04-.098l.015-.011c.031-.036.078-.051.078-.137 0-.043-.031-.086-.059-.164a.32.32 0 0 1 .055-.281c-.101.039-.16.132-.195.218-.031.11 0 .168-.047.258-.027.055-.059.082-.09.129a.5.5 0 0 0-.078.234.713.713 0 0 0 .71.664c.372 0 .68-.289.708-.664a.6.6 0 0 0-.078-.234c-.035-.047-.067-.074-.094-.129-.047-.09-.016-.148-.05-.258-.032-.086-.09-.18-.192-.218a.34.34 0 0 1 .055.28c-.028.079-.055.118-.055.165 0 .086.043.101.078.137l.012.011c.023.028.039.063.039.098q.001.06-.04.101a.13.13 0 0 1-.1.047c-.079-.015-.138-.05-.145-.148 0-.277.117-.293.117-.5 0-.293-.258-.43-.258-.645 0-.07.016-.195.117-.293M1.043 9.066h1.418v6.907H1.043Zm4.828 0h1.422v6.907H5.871Zm-3.125 0h2.84l-1.418.86Zm0 1.145h2.84v.578h-2.84Zm0 4.035h2.84v.578h-2.84Zm0 .863h2.84l-1.418.864ZM5.59 12.523c0-.796-.637-1.441-1.422-1.441s-1.422.645-1.422 1.441c0 .797.637 1.442 1.422 1.442s1.422-.645 1.422-1.442m0 0" style="stroke:none;fill-rule:nonzero;fill:#ffd900;fill-opacity:1"/><path d="M4.45 11.758a.283.283 0 1 0-.567 0c0 .16.125.289.285.289a.284.284 0 0 0 .281-.29M4.45 13.285c0-.16-.126-.289-.282-.289a.285.285 0 0 0-.285.29c0 .16.125.288.285.288a.284.284 0 0 0 .281-.289m0 0" style="stroke:none;fill-rule:nonzero;fill:#da2032;fill-opacity:1"/><path d="M4.168 10.91c.46 0 .836.38.836.848a.845.845 0 0 1-.836.851.67.67 0 0 0-.668.676c0 .371.297.676.668.676v.172a.843.843 0 0 1-.84-.848c0-.469.375-.851.84-.851.367 0 .664-.301.664-.676a.67.67 0 0 0-.664-.676Zm0 0" style="stroke:none;fill-rule:nonzero;fill:#da2032;fill-opacity:1"/></svg>
